public/icons/balancer.svg

<svg width="74" height="74" viewBox="0 0 74 74" fill="none" xmlns="http://www.w3.org/2000/svg">
<g clip-path="url(#clip0_651_3247)">
<path fill-rule="evenodd" clip-rule="evenodd" d="M37 0C57.4314 0 74 16.5686 74 37C74 57.4314 57.4314 74 37 74C16.5686 74 0 57.4314 0 37C0 16.5686 16.5686 0 37 0Z" fill="#2E2E2E"/>
<path d="M37.555 52.4658C25.7224 52.4658 16.132 49.047 16.132 44.4664C16.132 42.0762 18.7442 39.9228 22.9252 38.4058C26.1886 40.5 31.6646 41.573 37.8732 41.573C43.9338 41.573 49.2914 40.2632 52.5844 38.2578C56.5286 39.76 58.978 41.8542 58.978 44.163C58.978 48.751 49.3876 52.4658 37.555 52.4658Z" fill="white"/>
<path d="M37.6808 40.5446C28.712 40.5446 21.4378 37.7326 21.4378 34.262C21.4378 32.338 23.68 30.6138 27.195 29.4668C29.7036 30.7766 33.4628 31.6128 37.6808 31.6128C41.8988 31.6128 45.658 30.7766 48.1666 29.4668C51.689 30.6212 53.9238 32.338 53.9238 34.262C53.9312 37.7326 46.657 40.5446 37.6808 40.5446Z" fill="white"/>
<path d="M37.6216 30.5695C30.6878 30.5695 25.0638 28.2459 25.0638 25.3895C25.0638 22.5331 30.6878 20.2095 37.6216 20.2095C44.5554 20.2095 50.1794 22.5331 50.1794 25.3895C50.1794 28.2459 44.5554 30.5695 37.6216 30.5695Z" fill="white"/>
</g>
<defs>
<clipPath id="clip0_651_3247">
<rect width="74" height="74" fill="white"/>
</clipPath>
</defs>
</svg>

<svg width="74" height="74" fill="none" xmlns="http://www.w3.org/2000/svg"><g clip-path="url(#a)"><path fill-rule="evenodd" clip-rule="evenodd" d="M37 0c20.431 0 37 16.569 37 37S57.431 74 37 74 0 57.431 0 37 16.569 0 37 0Z" fill="#2E2E2E"/><path d="M37.555 52.466c-11.833 0-21.423-3.419-21.423-8 0-2.39 2.612-4.543 6.793-6.06 3.264 2.094 8.74 3.167 14.948 3.167 6.06 0 11.418-1.31 14.711-3.315 3.945 1.502 6.394 3.596 6.394 5.905 0 4.588-9.59 8.303-21.423 8.303Z" fill="#fff"/><path d="M37.68 40.545c-8.968 0-16.242-2.812-16.242-6.283 0-1.924 2.242-3.648 5.757-4.795 2.509 1.31 6.268 2.146 10.486 2.146 4.218 0 7.977-.836 10.486-2.146 3.522 1.154 5.757 2.871 5.757 4.795.007 3.47-7.267 6.283-16.243 6.283Z" fill="#fff"/><path d="M37.622 30.57c-6.934 0-12.558-2.324-12.558-5.18 0-2.857 5.624-5.18 12.558-5.18 6.933 0 12.557 2.323 12.557 5.18 0 2.856-5.624 5.18-12.557 5.18Z" fill="#fff"/></g><defs><clipPath id="a"><path fill="#fff" d="M0 0h74v74H0z"/></clipPath></defs></svg>
